src/images/icon-m-copy.svg

<svg viewBox="0 0 18 18" xmlns="http://www.w3.org/2000/svg"><path d="m7.2 0v10.8h10.8v-10.8zm-3.6 7.2h-3.6v10.8h10.8v-3.6h-7.2z" fill="#63cfe3"/></svg>

<svg xmlns="http://www.w3.org/2000/svg" viewBox="0 0 18 18"><defs><style>.cls-1{fill:#63cfe3;}</style></defs><title>icon-m-copy</title><g id="Layer_2" data-name="Layer 2"><g id="Layer_1-2" data-name="Layer 1"><path class="cls-1" d="M7.2,0V10.8H18V0ZM3.6,7.2H0V18H10.8V14.4H3.6Z"/></g></g></svg>
